X: 1
T: Puttin' On the Ritz
Z: 2006 John Chambers <jc@trillian.mit.edu>
M: 2/4
L: 1/16
K: Am
|: "Am"A2c2 e2E2 |     Ac2e E2A2 |     ce2E A2c2 | "E7"eE2E   ^G2B2 \
|  "Dm"d8        | "E7"z4   edcB |1"Am"A4   z4   |  "F"F4  "E7"E4  :|2 "Am"A4 z4 | z8 ||
[| "Dm"d2e2 f2g2 | "A7"a2g2 f2e2 | "Dm"dA3  d4   | "^p"dA3     d4   \
|  "C"c2d2  e2f2 | "G7"g2f2 e2d2 |  "C"cG3  c4   | "B7"BB3 "E7"e4  |]
[| "Am"A2c2 e2E2 |     Ac2e E2A2 |     ce2E A2c2 | "E7"eE2E   ^G2B2 \
|  "Dm"d8        | "E7"z4   edcB | "Am"A4   z4   | "Am"AAzA    A4  |]
